X:25
T:Seamus O'Shanahan's (jig)
I:titlefont Times-Roman 24
I:partsfont Times-Roman 20
R: jig
M:6/8
L:1/8
O:Paul O'Shaughnessy (15.9.2015/NS)
K:Bmin
|: "Bm" F2 B Bcd| "A" cAA Ace| "D" fed cde| "F#m" d3 cAG|
"Bm" F3 Bcd| "A" cAA Ace| "D" fed cde|1 "A" dBA B3 :|2 "F#m" dBA Bcd||
|: "Em" e2 g gag| "Bm" fdB Bed| "F#m" c2 e edc| "Bm" dff fdB|
"Em" egg gag| "Bm" fdB Bed| "F#m" cde dcA| "G" BcB "A" B2B:|
%%vskip
%%begintext
|: F2B Bcd| cAA Ace| fed cde| d3 cAG |
F3 Bcd | cAA Ace | fed cde |1 dBA B3 :|2 dBA Bcd |
|: e2g gag | fdB Bed | c2e edc| dff fdB |
egg gag | fdB Bed | cde dcA | BcB B2B :|
%%endtext
%%vskip
K:Dmix
P:Garrett Barry's
|: "D5" DEF ~G3|AGA c2A %|"C" dcA d2e|fed cAG|
%"D5"~F3 GFG|AGA cde|"Am"dcA "C"GEA|"D5"DED D2 A:|
%|:"D5"dcA d2e|"C"fed (3efg e|"D5"dcA c2d|"C"efe ecA|
%"D5"dcA "C"d2e|"Am"fed (3efg e|dcA "C"GEA|"D5"DED D2 A:|
%%vskip
%%begintext
|: D5     | %     | C         |  %    |
| D5      | %     | Am C  | D5   :|
|: D5     | C     | D5       | C      |
| D5 C  | Am  | Am C   | D5  :|
%%endtext
%%vskip
P:Saddle The Pony
K:Gmaj
D| "G" GBA G2B| def gdB %| "G" GBA G2B| "D" AFD AFD|
%"G" GBA G2B| "G" def gfg| "Em" ege dBA| "G" BGG G2:||
%d| "C" efe edB| "G" def gfg| "C" efe edB| "D" dBA ABd|
%"C" efe edB| "G" def gfg| "Em" ege dBA| "G" BGG G2:||
%%vskip
%%begintext
|: G     | %   | %      | D     |
| G      | %   | C  D  | G    :|
|: Em  | D    | Em    | D     |
| Em   | D    | C  D  | G    :|
%%endtext

